X:1
T:Title
%%score { ( 1 3 ) | ( 2 4 ) }
L:1/8
M:6/8
K:Ab
V:1 treble nm="Grand Piano"
V:3 treble 
V:2 bass 
V:4 bass 
V:1
 z3 z2[Q:1/4=81] [CE]/[CE]/ | [CA][CA][CA] [CA][DB][Ec] | [FB][FA][DF] [CE]2 [CE] | %3
 [CA]2 [CA] [=Dc][DB][DA] |[M:5/8] [EB]-[EB]- [EB]3 |[M:1/8] [DE] | %6
[M:3/4] [CA][CA] [CA][CA] [DB][Ec] | [FB][FA] [DF] [CE]2 [CE] | AA AB cB | %9
[M:5/8] [A,CA]-[A,CA]- [A,CA]3 |[M:1/8] c |[M:3/4] B6 | A6 | AA A[=Dc] [DB][DA] | %14
[M:5/8] [EB]-[EB]- [EB]3 |[M:1/8] [Ee] |[M:3/4] [Ee][Ec] [GB] [FA]2 [_GA] | [FB][FA] [DF] [CE]3 | %18
 AA AB/c/- cB |[M:5/8] [CA]-[CA]- [CA]3 |] %20
V:2
 z3 z2 [A,,A,]/[A,,A,]/ | [A,,A,][A,,A,][A,,A,] [A,,A,][A,,A,][A,,A,] | %2
 [D,A,][D,A,][D,A,] [A,,A,]2 [A,,A,] | [F,A,]2 [F,A,] [B,,A,][B,,A,][B,,A,] | %4
[M:5/8] [E,G,]-[E,G,]- [E,G,]3 |[M:1/8] [E,G,] | %6
[M:3/4] [A,,A,][A,,A,] [A,,A,][A,,A,] [A,,A,][A,,A,] | [D,A,][D,A,] [D,A,] [A,,A,]2 [A,,A,] | %8
 [F,A,C][F,A,C] [F,A,C][E,G,D] [E,G,E][E,G,D] |[M:5/8] A,,-A,,- A,,3 |[M:1/8] E |[M:3/4] D6 | C6 | %13
 [F,A,C][F,A,C] [F,A,C][B,,A,] [B,,A,][B,,A,] |[M:5/8] [E,G,]-[E,G,]- [E,G,]3 |[M:1/8] [D,D] | %16
[M:3/4] [A,C][A,C] [E,D] [F,C]2 [E,C] | [D,D][D,D] [D,A,] [A,,A,]3 | %18
 [F,A,C][F,A,C] [F,A,C][E,G,D]/[E,G,E]/- [E,G,E][E,G,D] |[M:5/8] [A,,A,]-[A,,A,]- [A,,A,]3 |] %20
V:3
 x6 | x6 | x6 | x6 |[M:5/8] x5 |[M:1/8] x |[M:3/4] x6 | x6 | x6 |[M:5/8] x5 |[M:1/8] x | %11
[M:3/4] z G, G,3 c | z2 A, A,3 | x6 |[M:5/8] x5 |[M:1/8] x |[M:3/4] x6 | x6 | x6 |[M:5/8] x5 |] %20
V:4
 x6 | x6 | x6 | x6 |[M:5/8] x5 |[M:1/8] x |[M:3/4] x6 | x6 | x6 |[M:5/8] x5 |[M:1/8] x | %11
[M:3/4] z E, E,3 E | z2 A,, A,,3 | x6 |[M:5/8] x5 |[M:1/8] x |[M:3/4] x6 | x6 | x6 |[M:5/8] x5 |] %20

